reader/components/icons/assets/print.svg

<svg viewBox="0 0 24 19" xmlns="http://www.w3.org/2000/svg">
  <path d="M22.2857 0.142853H1.71429C0.768 0.142853 0 0.910853 0 1.85714V12.1429C0 13.0891 0.768 13.8571 1.71429 13.8571H3.42857V17.2857C3.42857 18.232 4.19657 19 5.14286 19H18.8571C19.8034 19 20.5714 18.232 20.5714 17.2857V13.8571H22.2857C23.232 13.8571 24 13.0891 24 12.1429V1.85714C24 0.910853 23.232 0.142853 22.2857 0.142853ZM18.8571 17.2857H5.14286V8.71428H18.8571V17.2857ZM20.5714 5.28571H17.1429V3.57142H20.5714V5.28571Z"/>
</svg>

<svg viewBox="0 0 24 19" xmlns="http://www.w3.org/2000/svg"><path d="M22.286.143H1.714C.768.143 0 .91 0 1.857v10.286c0 .946.768 1.714 1.714 1.714H3.43v3.429c0 .946.768 1.714 1.714 1.714h13.714c.946 0 1.714-.768 1.714-1.714v-3.429h1.715c.946 0 1.714-.768 1.714-1.714V1.857c0-.946-.768-1.714-1.714-1.714zm-3.429 17.143H5.143V8.714h13.714v8.572zm1.714-12h-3.428V3.57h3.428v1.715z"/></svg>
